assets/lut/classic-neg.cube
TITLE "PRAHA Classic Negative v1"
# Display sRGB in, display sRGB out. Written by tools/make-lut.ts; see design.md §5.2.
LUT_3D_SIZE 32
DOMAIN_MIN 0.0 0.0 0.0
DOMAIN_MAX 1.0 1.0 1.0
0.0000 0.0000 0.0006
0.0245 0.0035 0.0058
0.0533 0.0053 0.0083
0.0839 0.0075 0.0109
0.1148 0.0099 0.0137
0.1459 0.0125 0.0167
0.1772 0.0155 0.0200
0.2087 0.0188 0.0236
0.2404 0.0226 0.0274
0.2723 0.0269 0.0317
0.3043 0.0316 0.0362
0.3364 0.0370 0.0412
0.3687 0.0430 0.0464
0.4010 0.0492 0.0516
0.4335 0.0555 0.0570
0.4660 0.0620 0.0625
0.4986 0.0687 0.0681
0.5312 0.0755 0.0738
0.5639 0.0825 0.0798
0.5965 0.0897 0.0859
0.6292 0.0970 0.0922
0.6619 0.1045 0.0987
0.6945 0.1121 0.1055
0.7270 0.1201 0.1127
0.7595 0.1282 0.1202
0.7919 0.1364 0.1278
0.8244 0.1446 0.1353
0.8568 0.1527 0.1429
0.8891 0.1607 0.1504
0.9215 0.1688 0.1578
0.9538 0.1767 0.1652
0.9862 0.1844 0.1720
0.0000 0.0283 0.0168
0.0189 0.0354 0.0121
0.0462 0.0387 0.0155
0.0825 0.0390 0.0141
0.1156 0.0399 0.0157
0.1476 0.0416 0.0183
0.1792 0.0440 0.0214
0.2107 0.0468 0.0249
0.2423 0.0500 0.0286
0.2741 0.0535 0.0328
0.3059 0.0574 0.0374
0.3380 0.0616 0.0423
0.3701 0.0660 0.0473
0.4024 0.0707 0.0525
0.4347 0.0758 0.0578
0.4672 0.0810 0.0633
0.4997 0.0866 0.0688
0.5322 0.0923 0.0746
0.5648 0.0984 0.0805
0.5974 0.1046 0.0866
0.6300 0.1111 0.0929
0.6626 0.1178 0.0994
0.6952 0.1247 0.1062
0.7277 0.1320 0.1134
0.7601 0.1395 0.1209
0.7925 0.1471 0.1285
0.8249 0.1547 0.1360
0.8573 0.1623 0.1435
0.8896 0.1699 0.1509
0.9220 0.1775 0.1584
0.9542 0.1851 0.1658
0.9866 0.1923 0.1723
0.0000 0.0553 0.0280
0.0104 0.0594 0.0290
0.0463 0.0661 0.0187
0.0733 0.0708 0.0286
0.1127 0.0702 0.0205
0.1463 0.0710 0.0211
0.1794 0.0717 0.0230
0.2118 0.0730 0.0259
0.2438 0.0749 0.0296
0.2757 0.0773 0.0337
0.3076 0.0802 0.0383
0.3395 0.0833 0.0432
0.3716 0.0869 0.0482
0.4038 0.0907 0.0533
0.4361 0.0948 0.0586
0.4684 0.0993 0.0640
0.5009 0.1040 0.0696
0.5334 0.1090 0.0753
0.5659 0.1143 0.0812
0.5984 0.1198 0.0873
0.6310 0.1256 0.0936
0.6635 0.1316 0.1001
0.6960 0.1379 0.1069
0.7284 0.1446 0.1142
0.7608 0.1515 0.1217
0.7932 0.1585 0.1292
0.8255 0.1656 0.1367
0.8579 0.1727 0.1441
0.8902 0.1799 0.1516
0.9225 0.1870 0.1590
0.9547 0.1942 0.1663
0.9871 0.2010 0.1727
0.0000 0.0834 0.0423
0.0088 0.0855 0.0457
0.0334 0.0903 0.0411
0.0782 0.0969 0.0264
0.1045 0.1021 0.0419
0.1400 0.1033 0.0341
0.1773 0.1025 0.0283
0.2109 0.1032 0.0292
0.2441 0.1039 0.0315
0.2768 0.1051 0.0350
0.3091 0.1068 0.0393
0.3413 0.1090 0.0441
0.3734 0.1116 0.0491
0.4056 0.1146 0.0542
0.4379 0.1179 0.0595
0.4701 0.1216 0.0650
0.5025 0.1255 0.0705
0.5349 0.1298 0.0763
0.5673 0.1343 0.0822
0.5998 0.1391 0.0883
0.6323 0.1442 0.0946
0.6647 0.1495 0.1011
0.6972 0.1552 0.1080
0.7295 0.1612 0.1153
0.7618 0.1674 0.1228
0.7941 0.1738 0.1302
0.8264 0.1802 0.1376
0.8587 0.1868 0.1451
0.8910 0.1934 0.1525
0.9233 0.2000 0.1598
0.9555 0.2067 0.1671
0.9878 0.2130 0.1732
0.0000 0.1118 0.0578
0.0086 0.1130 0.0613
0.0314 0.1158 0.0615
0.0658 0.1216 0.0534
0.1108 0.1282 0.0353
0.1380 0.1334 0.0523
0.1671 0.1367 0.0548
0.2086 0.1347 0.0382
0.2425 0.1354 0.0377
0.2762 0.1360 0.0390
0.3095 0.1367 0.0417
0.3424 0.1379 0.0457
0.3750 0.1396 0.0503
0.4074 0.1417 0.0553
0.4398 0.1442 0.0605
0.4721 0.1471 0.0659
0.5044 0.1503 0.0716
0.5368 0.1538 0.0773
0.5691 0.1576 0.0833
0.6015 0.1617 0.0894
0.6339 0.1661 0.0958
0.6663 0.1708 0.1024
0.6986 0.1758 0.1093
0.7308 0.1812 0.1167
0.7631 0.1867 0.1241
0.7954 0.1924 0.1315
0.8276 0.1982 0.1389
0.8598 0.2041 0.1462
0.8921 0.2101 0.1536
0.9243 0.2162 0.1609
0.9564 0.2223 0.1681
0.9888 0.2280 0.1738
0.0000 0.1417 0.0745
0.0097 0.1413 0.0766
0.0327 0.1430 0.0783
0.0630 0.1469 0.0763
0.0986 0.1533 0.0651
0.1437 0.1599 0.0456
0.1722 0.1651 0.0616
0.1965 0.1697 0.0743
0.2372 0.1688 0.0561
0.2747 0.1678 0.0478
0.3082 0.1687 0.0484
0.3420 0.1693 0.0500
0.3754 0.1702 0.0530
0.4085 0.1714 0.0571
0.4412 0.1731 0.0619
0.4738 0.1751 0.0671
0.5063 0.1776 0.0727
0.5387 0.1804 0.0785
0.5711 0.1835 0.0845
0.6034 0.1870 0.0907
0.6358 0.1907 0.0971
0.6681 0.1948 0.1038
0.7003 0.1992 0.1109
0.7325 0.2039 0.1183
0.7646 0.2087 0.1256
0.7968 0.2138 0.1330
0.8290 0.2190 0.1403
0.8612 0.2243 0.1476
0.8934 0.2297 0.1549
0.9255 0.2352 0.1622
0.9577 0.2406 0.1690
0.9900 0.2458 0.1745
0.0000 0.1723 0.0918
0.0144 0.1720 0.0938
0.0373 0.1723 0.0952
0.0650 0.1740 0.0951
0.0948 0.1785 0.0905
0.1319 0.1856 0.0770
0.1771 0.1921 0.0564
0.2068 0.1971 0.0704
0.2281 0.2025 0.0910
0.2648 0.2034 0.0783
0.3063 0.2011 0.0605
0.3406 0.2017 0.0589
0.3743 0.2025 0.0598
0.4081 0.2032 0.0618
0.4416 0.2042 0.0651
0.4748 0.2055 0.0694
0.5077 0.2071 0.0744
0.5404 0.2092 0.0800
0.5729 0.2116 0.0859
0.6053 0.2144 0.0921
0.6377 0.2175 0.0986
0.6699 0.2210 0.1054
0.7021 0.2248 0.1127
0.7342 0.2288 0.1200
0.7664 0.2331 0.1273
0.7985 0.2375 0.1346
0.8307 0.2421 0.1419
0.8628 0.2468 0.1492
0.8949 0.2516 0.1564
0.9269 0.2566 0.1636
0.9591 0.2614 0.1699
0.9914 0.2660 0.1753
0.0002 0.2033 0.1093
0.0216 0.2031 0.1113
0.0452 0.2032 0.1128
0.0712 0.2041 0.1138
0.0978 0.2067 0.1123
0.1281 0.2118 0.1053
0.1661 0.2188 0.0895
0.2107 0.2247 0.0676
0.2415 0.2294 0.0792
0.2612 0.2351 0.1054
0.2933 0.2378 0.1010
0.3355 0.2359 0.0796
0.3735 0.2348 0.0700
0.4068 0.2359 0.0708
0.4407 0.2368 0.0720
0.4745 0.2376 0.0744
0.5080 0.2386 0.0781
0.5412 0.2400 0.0827
0.5741 0.2417 0.0881
0.6068 0.2438 0.0941
0.6393 0.2463 0.1005
0.6716 0.2491 0.1075
0.7039 0.2523 0.1147
0.7360 0.2557 0.1219
0.7682 0.2593 0.1292
0.8003 0.2631 0.1364
0.8324 0.2671 0.1437
0.8645 0.2713 0.1509
0.8965 0.2756 0.1581
0.9285 0.2799 0.1651
0.9608 0.2841 0.1708
0.9930 0.2882 0.1760
0.0097 0.2345 0.1272
0.0317 0.2344 0.1290
0.0546 0.2344 0.1306
0.0788 0.2349 0.1320
0.1038 0.2365 0.1322
0.1305 0.2399 0.1291
0.1616 0.2455 0.1198
0.2003 0.2522 0.1019
0.2444 0.2576 0.0791
0.2764 0.2621 0.0882
0.2952 0.2679 0.1183
0.3232 0.2719 0.1223
0.3635 0.2713 0.1028
0.4049 0.2690 0.0850
0.4396 0.2694 0.0825
0.4732 0.2705 0.0836
0.5071 0.2714 0.0853
0.5408 0.2723 0.0882
0.5743 0.2734 0.0923
0.6074 0.2749 0.0975
0.6403 0.2768 0.1036
0.6728 0.2790 0.1102
0.7053 0.2815 0.1171
0.7376 0.2842 0.1241
0.7698 0.2872 0.1313
0.8020 0.2905 0.1384
0.8341 0.2939 0.1456
0.8662 0.2975 0.1527
0.8982 0.3012 0.1599
0.9303 0.3049 0.1661
0.9626 0.3085 0.1715
0.9948 0.3122 0.1767
0.0224 0.2660 0.1453
0.0447 0.2659 0.1470
0.0651 0.2659 0.1486
0.0875 0.2663 0.1502
0.1112 0.2673 0.1513
0.1360 0.2695 0.1504
0.1632 0.2735 0.1455
0.1953 0.2794 0.1341
0.2345 0.2858 0.1146
0.2782 0.2907 0.0910
0.3111 0.2950 0.0978
0.3297 0.3008 0.1302
0.3546 0.3057 0.1416
0.3917 0.3066 0.1273
0.4343 0.3043 0.1053
0.4725 0.3031 0.0951
0.5058 0.3044 0.0961
0.5395 0.3054 0.0976
0.5733 0.3064 0.1000
0.6069 0.3074 0.1038
0.6402 0.3087 0.1087
0.6732 0.3103 0.1143
0.7060 0.3122 0.1205
0.7387 0.3143 0.1270
0.7711 0.3167 0.1338
0.8034 0.3193 0.1407
0.8357 0.3221 0.1477
0.8678 0.3252 0.1547
0.8999 0.3283 0.1615
0.9322 0.3314 0.1670
0.9644 0.3345 0.1722
0.9966 0.3377 0.1772
0.0383 0.2977 0.1638
0.0585 0.2977 0.1653
0.0764 0.2977 0.1668
0.0971 0.2979 0.1686
0.1195 0.2986 0.1701
0.1431 0.3001 0.1704
0.1681 0.3030 0.1683
0.1961 0.3075 0.1617
0.2291 0.3134 0.1484
0.2687 0.3195 0.1275
0.3121 0.3240 0.1034
0.3456 0.3281 0.1080
0.3645 0.3338 0.1416
0.3870 0.3393 0.1592
0.4206 0.3416 0.1514
0.4624 0.3401 0.1294
0.5035 0.3379 0.1124
0.5386 0.3382 0.1094
0.5718 0.3396 0.1113
0.6054 0.3407 0.1136
0.6390 0.3418 0.1168
0.6726 0.3429 0.1208
0.7059 0.3442 0.1257
0.7389 0.3457 0.1313
0.7717 0.3475 0.1373
0.8043 0.3495 0.1437
0.8368 0.3518 0.1503
0.8691 0.3542 0.1571
0.9015 0.3567 0.1627
0.9338 0.3592 0.1678
0.9661 0.3618 0.1728
0.9983 0.3645 0.1776
0.0557 0.3296 0.1825
0.0724 0.3296 0.1839
0.0883 0.3296 0.1853
0.1074 0.3298 0.1871
0.1286 0.3302 0.1888
0.1511 0.3313 0.1899
0.1748 0.3334 0.1895
0.2003 0.3368 0.1860
0.2290 0.3417 0.1776
0.2629 0.3476 0.1626
0.3028 0.3533 0.1406
0.3459 0.3575 0.1162
0.3799 0.3614 0.1189
0.3992 0.3670 0.1529
0.4201 0.3728 0.1755
0.4503 0.3763 0.1744
0.4901 0.3760 0.1555
0.5325 0.3736 0.1346
0.5707 0.3725 0.1247
0.6040 0.3738 0.1259
0.6374 0.3750 0.1279
0.6711 0.3761 0.1304
0.7047 0.3771 0.1337
0.7382 0.3782 0.1378
0.7714 0.3795 0.1426
0.8044 0.3810 0.1481
0.8372 0.3827 0.1540
0.8699 0.3844 0.1592
0.9026 0.3863 0.1640
0.9352 0.3883 0.1688
0.9676 0.3904 0.1735
0.9999 0.3926 0.1780
0.0720 0.3617 0.2014
0.0864 0.3617 0.2027
0.1006 0.3617 0.2041
0.1182 0.3618 0.2058
0.1382 0.3622 0.2077
0.1597 0.3630 0.2092
0.1824 0.3645 0.2098
0.2064 0.3670 0.2083
0.2325 0.3709 0.2035
0.2620 0.3760 0.1935
0.2967 0.3818 0.1770
0.3368 0.3872 0.1542
0.3795 0.3912 0.1297
0.4140 0.3948 0.1307
0.4339 0.4003 0.1644
0.4534 0.4064 0.1911
0.4807 0.4107 0.1965
0.5179 0.4117 0.1820
0.5603 0.4098 0.1599
0.6010 0.4077 0.1440
0.6365 0.4078 0.1403
0.6695 0.4092 0.1424
0.7030 0.4104 0.1445
0.7366 0.4114 0.1470
0.7702 0.4124 0.1504
0.8036 0.4134 0.1545
0.8369 0.4145 0.1584
0.8701 0.4157 0.1622
0.9031 0.4170 0.1661
0.9360 0.4185 0.1702
0.9686 0.4201 0.1744
1.0000 0.4218 0.1786
0.0877 0.3939 0.2207
0.1003 0.3939 0.2219
0.1131 0.3939 0.2232
0.1293 0.3940 0.2248
0.1481 0.3943 0.2267
0.1687 0.3949 0.2286
0.1906 0.3960 0.2298
0.2136 0.3980 0.2296
0.2380 0.4010 0.2271
0.2646 0.4052 0.2209
0.2950 0.4104 0.2094
0.3303 0.4161 0.1917
0.3704 0.4213 0.1684
0.4128 0.4250 0.1441
0.4475 0.4285 0.1438
0.4681 0.4338 0.1765
0.4869 0.4400 0.2061
0.5119 0.4449 0.2169
0.5463 0.4470 0.2075
0.5876 0.4459 0.1864
0.6298 0.4434 0.1664
0.6681 0.4421 0.1563
0.7017 0.4432 0.1567
0.7349 0.4445 0.1587
0.7684 0.4456 0.1608
0.8022 0.4464 0.1625
0.8359 0.4471 0.1644
0.8695 0.4479 0.1668
0.9029 0.4488 0.1696
0.9360 0.4497 0.1727
0.9690 0.4508 0.1761
1.0000 0.4520 0.1796
0.1027 0.4262 0.2402
0.1139 0.4262 0.2413
0.1255 0.4262 0.2425
0.1405 0.4263 0.2442
0.1582 0.4266 0.2461
0.1779 0.4270 0.2480
0.1990 0.4279 0.2496
0.2211 0.4294 0.2504
0.2445 0.4318 0.2494
0.2693 0.4351 0.2458
0.2966 0.4396 0.2383
0.3276 0.4450 0.2257
0.3633 0.4505 0.2070
0.4036 0.4554 0.1834
0.4458 0.4589 0.1590
0.4809 0.4622 0.1573
0.5024 0.4673 0.1885
0.5206 0.4735 0.2202
0.5438 0.4788 0.2356
0.5755 0.4818 0.2315
0.6149 0.4817 0.2131
0.6576 0.4794 0.1911
0.6981 0.4773 0.1757
0.7340 0.4770 0.1708
0.7671 0.4783 0.1716
0.8006 0.4793 0.1721
0.8344 0.4800 0.1727
0.8682 0.4806 0.1736
0.9018 0.4812 0.1749
0.9353 0.4818 0.1768
0.9686 0.4825 0.1791
1.0000 0.4832 0.1817
0.1169 0.4586 0.2601
0.1270 0.4586 0.2611
0.1376 0.4586 0.2623
0.1515 0.4587 0.2638
0.1682 0.4589 0.2657
0.1870 0.4593 0.2678
0.2073 0.4600 0.2697
0.2287 0.4612 0.2710
0.2512 0.4631 0.2712
0.2748 0.4658 0.2695
0.3002 0.4695 0.2648
0.3282 0.4742 0.2560
0.3600 0.4795 0.2421
0.3963 0.4849 0.2224
0.4368 0.4895 0.1983
0.4788 0.4927 0.1739
0.5142 0.4958 0.1709
0.5365 0.5008 0.2004
0.5544 0.5069 0.2336
0.5761 0.5125 0.2530
0.6054 0.5162 0.2539
0.6426 0.5171 0.2392
0.6849 0.5153 0.2166
0.7270 0.5126 0.1961
0.7656 0.5110 0.1843
0.7998 0.5116 0.1823
0.8330 0.5127 0.1824
0.8666 0.5134 0.1824
0.9003 0.5139 0.1825
0.9340 0.5144 0.1830
0.9675 0.5148 0.1839
1.0000 0.5152 0.1853
0.1298 0.4911 0.2805
0.1390 0.4911 0.2815
0.1488 0.4911 0.2826
0.1619 0.4912 0.2841
0.1777 0.4914 0.2859
0.1957 0.4917 0.2880
0.2154 0.4923 0.2900
0.2363 0.4933 0.2917
0.2582 0.4948 0.2926
0.2811 0.4970 0.2921
0.3052 0.5000 0.2894
0.3312 0.5040 0.2835
0.3599 0.5088 0.2734
0.3924 0.5141 0.2582
0.4293 0.5192 0.2377
0.4698 0.5235 0.2132
0.5117 0.5265 0.1887
0.5474 0.5294 0.1845
0.5706 0.5341 0.2121
0.5883 0.5401 0.2465
0.6090 0.5459 0.2689
0.6363 0.5502 0.2739
0.6714 0.5518 0.2623
0.7125 0.5507 0.2405
0.7554 0.5480 0.2171
0.7959 0.5455 0.2002
0.8324 0.5448 0.1925
0.8654 0.5457 0.1921
0.8987 0.5465 0.1917
0.9322 0.5470 0.1912
0.9658 0.5474 0.1909
0.9994 0.5476 0.1910
0.1425 0.5236 0.3010
0.1510 0.5236 0.3019
0.1602 0.5237 0.3030
0.1724 0.5237 0.3044
0.1874 0.5239 0.3061
0.2047 0.5242 0.3082
0.2237 0.5247 0.3102
0.2441 0.5255 0.3121
0.2655 0.5267 0.3135
0.2878 0.5285 0.3138
0.3111 0.5310 0.3125
0.3357 0.5343 0.3088
0.3623 0.5385 0.3018
0.3918 0.5433 0.2905
0.4249 0.5485 0.2742
0.4622 0.5534 0.2528
0.5028 0.5574 0.2280
0.5445 0.5602 0.2034
0.5805 0.5629 0.1977
0.6048 0.5673 0.2226
0.6228 0.5731 0.2571
0.6427 0.5790 0.2819
0.6682 0.5836 0.2909
0.7011 0.5860 0.2834
0.7405 0.5856 0.2637
0.7831 0.5832 0.2393
0.8250 0.5803 0.2181
0.8635 0.5784 0.2049
0.8979 0.5785 0.2010
0.9308 0.5793 0.2004
0.9641 0.5798 0.1995
0.9975 0.5801 0.1985
0.1552 0.5561 0.3215
0.1631 0.5561 0.3224
0.1716 0.5562 0.3233
0.1831 0.5562 0.3247
0.1974 0.5564 0.3264
0.2140 0.5566 0.3283
0.2324 0.5570 0.3304
0.2521 0.5577 0.3324
0.2730 0.5587 0.3341
0.2948 0.5602 0.3350
0.3175 0.5622 0.3347
0.3412 0.5650 0.3326
0.3663 0.5686 0.3279
0.3935 0.5729 0.3197
0.4237 0.5777 0.3072
0.4574 0.5827 0.2898
0.4952 0.5874 0.2676
0.5361 0.5911 0.2416
0.5779 0.5936 0.2159
0.6142 0.5961 0.2084
0.6394 0.6002 0.2313
0.6575 0.6058 0.2663
0.6766 0.6117 0.2935
0.7006 0.6166 0.3062
0.7313 0.6196 0.3028
0.7688 0.6201 0.2860
0.8106 0.6181 0.2618
0.8531 0.6151 0.2377
0.8933 0.6124 0.2197
0.9299 0.6112 0.2103
0.9629 0.6117 0.2085
0.9958 0.6123 0.2073
0.1678 0.5886 0.3419
0.1751 0.5886 0.3427
0.1831 0.5886 0.3437
0.1940 0.5887 0.3449
0.2075 0.5888 0.3465
0.2234 0.5890 0.3484
0.2412 0.5894 0.3505
0.2604 0.5899 0.3526
0.2808 0.5908 0.3545
0.3021 0.5920 0.3558
0.3242 0.5937 0.3563
0.3472 0.5960 0.3553
0.3713 0.5990 0.3523
0.3970 0.6028 0.3465
0.4250 0.6071 0.3368
0.4560 0.6119 0.3227
0.4906 0.6167 0.3037
0.5288 0.6210 0.2801
0.5698 0.6244 0.2535
0.6115 0.6267 0.2271
0.6479 0.6290 0.2183
0.6738 0.6329 0.2394
0.6921 0.6383 0.2746
0.7107 0.6442 0.3038
0.7333 0.6493 0.3199
0.7620 0.6528 0.3205
0.7975 0.6539 0.3070
0.8380 0.6527 0.2842
0.8806 0.6497 0.2585
0.9220 0.6465 0.2364
0.9604 0.6443 0.2219
0.9950 0.6438 0.2159
0.1803 0.6209 0.3623
0.1871 0.6210 0.3631
0.1946 0.6210 0.3639
0.2049 0.6211 0.3651
0.2178 0.6212 0.3667
0.2330 0.6214 0.3685
0.2501 0.6217 0.3705
0.2688 0.6221 0.3727
0.2887 0.6228 0.3746
0.3097 0.6239 0.3761
0.3315 0.6253 0.3769
0.3541 0.6272 0.3766
0.3777 0.6297 0.3745
0.4024 0.6329 0.3703
0.4288 0.6367 0.3630
0.4574 0.6411 0.3520
0.4891 0.6458 0.3366
0.5241 0.6504 0.3164
0.5626 0.6544 0.2919
0.6035 0.6576 0.2646
0.6450 0.6596 0.2377
0.6815 0.6617 0.2277
0.7081 0.6654 0.2470
0.7266 0.6706 0.2822
0.7448 0.6764 0.3131
0.7662 0.6816 0.3323
0.7932 0.6855 0.3366
0.8266 0.6873 0.3266
0.8655 0.6867 0.3059
0.9076 0.6841 0.2799
0.9497 0.6806 0.2548
0.9895 0.6776 0.2356
0.1938 0.6532 0.3819
0.2002 0.6532 0.3826
0.2072 0.6532 0.3834
0.2170 0.6533 0.3845
0.2293 0.6534 0.3859
0.2439 0.6535 0.3875
0.2604 0.6538 0.3894
0.2786 0.6542 0.3914
0.2981 0.6548 0.3933
0.3186 0.6556 0.3949
0.3399 0.6568 0.3961
0.3621 0.6584 0.3963
0.3850 0.6605 0.3952
0.4088 0.6633 0.3923
0.4340 0.6666 0.3870
0.4608 0.6705 0.3785
0.4900 0.6749 0.3663
0.5222 0.6794 0.3497
0.5576 0.6838 0.3284
0.5962 0.6876 0.3031
0.6370 0.6905 0.2751
0.6784 0.6923 0.2477
0.7149 0.6942 0.2366
0.7420 0.6976 0.2541
0.7609 0.7026 0.2892
0.7788 0.7083 0.3215
0.7993 0.7136 0.3433
0.8246 0.7178 0.3512
0.8561 0.7201 0.3448
0.8932 0.7201 0.3266
0.9343 0.7180 0.3013
0.9767 0.7145 0.2743
0.2085 0.6852 0.4005
0.2144 0.6852 0.4011
0.2210 0.6853 0.4018
0.2302 0.6853 0.4029
0.2418 0.6854 0.4042
0.2557 0.6856 0.4058
0.2715 0.6858 0.4076
0.2891 0.6861 0.4096
0.3079 0.6866 0.4115
0.3279 0.6873 0.4132
0.3488 0.6883 0.4146
0.3704 0.6897 0.4153
0.3928 0.6915 0.4149
0.4160 0.6938 0.4131
0.4401 0.6967 0.4093
0.4656 0.7001 0.4029
0.4930 0.7041 0.3933
0.5227 0.7084 0.3799
0.5553 0.7128 0.3621
0.5910 0.7169 0.3399
0.6297 0.7205 0.3137
0.6704 0.7231 0.2851
0.7116 0.7247 0.2570
0.7482 0.7264 0.2448
0.7757 0.7295 0.2607
0.7950 0.7343 0.2954
0.8127 0.7398 0.3290
0.8323 0.7452 0.3532
0.8563 0.7496 0.3643
0.8859 0.7523 0.3614
0.9212 0.7529 0.3462
0.9610 0.7514 0.3222
0.2234 0.7171 0.4187
0.2289 0.7172 0.4193
0.2351 0.7172 0.4200
0.2436 0.7172 0.4209
0.2546 0.7173 0.4222
0.2678 0.7174 0.4237
0.2830 0.7176 0.4255
0.2999 0.7179 0.4274
0.3181 0.7183 0.4293
0.3375 0.7189 0.4311
0.3579 0.7198 0.4327
0.3791 0.7209 0.4337
0.4010 0.7224 0.4339
0.4236 0.7244 0.4329
0.4470 0.7269 0.4303
0.4715 0.7299 0.4256
0.4973 0.7334 0.4181
0.5251 0.7374 0.4074
0.5553 0.7416 0.3928
0.5882 0.7459 0.3739
0.6243 0.7498 0.3507
0.6630 0.7530 0.3238
0.7036 0.7554 0.2946
0.7446 0.7568 0.2659
0.7811 0.7583 0.2526
0.8091 0.7612 0.2668
0.8289 0.7657 0.3009
0.8463 0.7711 0.3355
0.8653 0.7764 0.3619
0.8880 0.7810 0.3760
0.9159 0.7841 0.3766
0.9494 0.7852 0.3644
0.2382 0.7489 0.4366
0.2434 0.7489 0.4371
0.2491 0.7489 0.4378
0.2572 0.7489 0.4387
0.2676 0.7490 0.4399
0.2802 0.7491 0.4414
0.2947 0.7493 0.4431
0.3109 0.7495 0.4449
0.3286 0.7499 0.4468
0.3474 0.7504 0.4487
0.3673 0.7511 0.4504
0.3880 0.7521 0.4516
0.4094 0.7534 0.4522
0.4315 0.7551 0.4519
0.4543 0.7572 0.4502
0.4780 0.7598 0.4468
0.5027 0.7629 0.4411
0.5290 0.7665 0.4327
0.5572 0.7704 0.4208
0.5877 0.7745 0.4051
0.6211 0.7786 0.3852
0.6573 0.7823 0.3610
0.6961 0.7852 0.3333
0.7366 0.7873 0.3034
0.7773 0.7886 0.2741
0.8138 0.7898 0.2597
0.8422 0.7925 0.2724
0.8624 0.7968 0.3057
0.8797 0.8020 0.3413
0.8981 0.8073 0.3695
0.9197 0.8119 0.3864
0.9461 0.8153 0.3902
0.2530 0.7804 0.4541
0.2578 0.7804 0.4547
0.2632 0.7805 0.4553
0.2708 0.7805 0.4562
0.2807 0.7805 0.4573
0.2926 0.7806 0.4587
0.3065 0.7808 0.4604
0.3221 0.7810 0.4622
0.3392 0.7813 0.4640
0.3575 0.7817 0.4659
0.3768 0.7823 0.4677
0.3970 0.7832 0.4691
0.4180 0.7843 0.4701
0.4396 0.7857 0.4702
0.4619 0.7875 0.4693
0.4849 0.7898 0.4669
0.5089 0.7925 0.4627
0.5339 0.7957 0.4560
0.5606 0.7993 0.4465
0.5891 0.8032 0.4335
0.6201 0.8071 0.4167
0.6537 0.8110 0.3958
0.6901 0.8144 0.3707
0.7289 0.8171 0.3422
0.7692 0.8190 0.3117
0.8098 0.8200 0.2816
0.8462 0.8210 0.2662
0.8749 0.8234 0.2773
0.8956 0.8274 0.3097
0.9128 0.8325 0.3462
0.9307 0.8377 0.3761
0.9513 0.8424 0.3955
0.2676 0.8118 0.4714
0.2721 0.8118 0.4720
0.2773 0.8118 0.4726
0.2844 0.8118 0.4734
0.2938 0.8119 0.4745
0.3052 0.8119 0.4758
0.3184 0.8121 0.4774
0.3334 0.8122 0.4791
0.3499 0.8125 0.4810
0.3677 0.8129 0.4829
0.3865 0.8134 0.4847
0.4063 0.8141 0.4862
0.4268 0.8150 0.4874
0.4480 0.8163 0.4879
0.4698 0.8178 0.4876
0.4922 0.8198 0.4861
0.5155 0.8221 0.4829
0.5396 0.8249 0.4778
0.5650 0.8282 0.4702
0.5920 0.8317 0.4596
0.6209 0.8355 0.4456
0.6522 0.8394 0.4277
0.6861 0.8430 0.4057
0.7227 0.8462 0.3798
0.7615 0.8486 0.3505
0.8016 0.8502 0.3193
0.8419 0.8510 0.2885
0.8783 0.8519 0.2720
0.9073 0.8540 0.2816
0.9284 0.8577 0.3130
0.9456 0.8626 0.3502
0.9631 0.8677 0.3817
0.2820 0.8429 0.4885
0.2863 0.8429 0.4889
0.2912 0.8429 0.4895
0.2980 0.8429 0.4903
0.3068 0.8430 0.4913
0.3177 0.8430 0.4926
0.3304 0.8431 0.4941
0.3448 0.8433 0.4958
0.3607 0.8435 0.4976
0.3779 0.8438 0.4995
0.3963 0.8443 0.5013
0.4155 0.8449 0.5030
0.4356 0.8457 0.5043
0.4564 0.8467 0.5051
0.4778 0.8480 0.5053
0.4998 0.8497 0.5044
0.5224 0.8518 0.5022
0.5458 0.8542 0.4983
0.5703 0.8571 0.4922
0.5959 0.8603 0.4837
0.6232 0.8639 0.4721
0.6525 0.8675 0.4570
0.6841 0.8712 0.4380
0.7183 0.8746 0.4151
0.7549 0.8775 0.3883
0.7936 0.8797 0.3582
0.8336 0.8811 0.3263
0.8737 0.8816 0.2948
0.9100 0.8823 0.2771
0.9392 0.8842 0.2853
0.9608 0.8876 0.3155
0.9780 0.8922 0.3533
0.2963 0.8738 0.5051
0.3003 0.8738 0.5056
0.3049 0.8738 0.5061
0.3114 0.8738 0.5069
