assets/lut/classic-neg.cube
TITLE "PRAHA Classic Negative v1"
# Display sRGB in, display sRGB out. Written by tools/make-lut.ts; see design.md §5.2.
LUT_3D_SIZE 5
DOMAIN_MIN 0.000000 0.000000 0.000000
DOMAIN_MAX 0.903226 0.903226 0.903226
0.0000 0.0000 0.0006
0.2087 0.0188 0.0236
0.4335 0.0555 0.0570
0.6619 0.1045 0.0987
0.8891 0.1607 0.1504
0.0002 0.2033 0.1093
0.2107 0.2247 0.0676
0.4407 0.2368 0.0720
0.6716 0.2491 0.1075
0.8965 0.2756 0.1581
0.1027 0.4262 0.2402
0.2211 0.4294 0.2504
0.4458 0.4589 0.1590
0.6576 0.4794 0.1911
0.9018 0.4812 0.1749
0.1938 0.6532 0.3819
0.2786 0.6542 0.3914
0.4340 0.6666 0.3870
0.6784 0.6923 0.2477
0.8561 0.7201 0.3448
0.2963 0.8738 0.5051
0.3562 0.8741 0.5122
0.4858 0.8781 0.5223
0.6543 0.8956 0.4838
0.9051 0.9118 0.3002
0.0000 0.0223 0.2066
0.1645 0.0701 0.2356
0.4280 0.0749 0.2321
0.6533 0.1304 0.2496
0.8815 0.1825 0.2773
0.0237 0.2219 0.2273
0.2208 0.2264 0.2307
0.4398 0.2385 0.2407
0.6644 0.2586 0.2585
0.8898 0.2865 0.2840
0.1314 0.4361 0.2891
0.2470 0.4308 0.3091
0.4514 0.4585 0.2730
0.6740 0.4717 0.2796
0.9067 0.4775 0.2885
0.2159 0.6562 0.4144
0.2981 0.6554 0.4269
0.4474 0.6629 0.4373
0.6821 0.6917 0.3297
0.8693 0.7153 0.3847
0.3117 0.8749 0.5288
0.3704 0.8746 0.5370
0.4984 0.8768 0.5522
0.6610 0.8930 0.5259
0.9075 0.9113 0.3666
0.0000 0.0831 0.3989
0.0937 0.1576 0.3645
0.3554 0.1742 0.4607
0.6501 0.1482 0.4564
0.8779 0.1996 0.4692
0.0416 0.2464 0.4098
0.1846 0.2543 0.4041
0.3803 0.2811 0.4577
0.6605 0.2695 0.4570
0.8815 0.3034 0.4739
0.1349 0.4525 0.4516
0.2627 0.4547 0.4542
0.4614 0.4614 0.4614
0.6763 0.4726 0.4734
0.8973 0.4865 0.4837
0.2295 0.6767 0.4915
0.3201 0.6742 0.5009
0.4814 0.6634 0.5330
0.6902 0.6913 0.4937
0.9094 0.6996 0.4899
0.3358 0.8840 0.5844
0.3958 0.8821 0.5942
0.5272 0.8781 0.6199
0.6814 0.8857 0.6271
0.9136 0.9101 0.5127
0.0000 0.1502 0.5948
0.0779 0.2035 0.5641
0.2656 0.2824 0.5815
0.5479 0.2826 0.6935
0.8537 0.2494 0.6996
0.0000 0.2702 0.6090
0.1578 0.2863 0.5975
0.3034 0.3523 0.5852
0.5617 0.3573 0.6924
0.8647 0.3296 0.6962
0.2028 0.4809 0.6138
0.2852 0.4799 0.6319
0.4231 0.4895 0.6322
0.6085 0.5123 0.6913
0.8922 0.4956 0.6864
0.2324 0.6845 0.6802
0.3224 0.6855 0.6810
0.4973 0.6886 0.6831
0.6998 0.6940 0.6861
0.9121 0.7003 0.6891
0.3292 0.9050 0.6901
0.3954 0.9046 0.6919
0.5440 0.9006 0.7032
0.7158 0.8856 0.7381
0.9209 0.9093 0.6936
0.0000 0.2191 0.7935
0.0664 0.2476 0.7802
0.2308 0.3495 0.7344
0.4448 0.4004 0.8204
0.7386 0.3912 0.9276
0.0000 0.3113 0.8057
0.1309 0.3249 0.7991
0.2725 0.4014 0.7538
0.4626 0.4530 0.8187
0.7481 0.4455 0.9250
0.1399 0.4973 0.8237
0.2526 0.4930 0.8383
0.3891 0.5202 0.8164
0.5288 0.5745 0.8184
0.7793 0.5738 0.9176
0.3350 0.7071 0.8285
0.3973 0.7096 0.8312
0.5229 0.7118 0.8545
0.6612 0.7207 0.8524
0.8398 0.7382 0.9055
0.3358 0.9076 0.8899
0.3998 0.9079 0.8899
0.5452 0.9086 0.8898
0.7298 0.9098 0.8891
0.9286 0.9110 0.8870
