assets/lut/classic-neg.cube
TITLE "PRAHA Classic Negative v1"
# Display sRGB in, display sRGB out. Written by tools/make-lut.ts; see design.md §5.2.
LUT_3D_SIZE 8
DOMAIN_MIN 0.000000 0.000000 0.000000
DOMAIN_MAX 0.903226 0.903226 0.903226
0.0000 0.0000 0.0006
0.1148 0.0099 0.0137
0.2404 0.0226 0.0274
0.3687 0.0430 0.0464
0.4986 0.0687 0.0681
0.6292 0.0970 0.0922
0.7595 0.1282 0.1202
0.8891 0.1607 0.1504
0.0000 0.1118 0.0578
0.1108 0.1282 0.0353
0.2425 0.1354 0.0377
0.3750 0.1396 0.0503
0.5044 0.1503 0.0716
0.6339 0.1661 0.0958
0.7631 0.1867 0.1241
0.8921 0.2101 0.1536
0.0097 0.2345 0.1272
0.1038 0.2365 0.1322
0.2444 0.2576 0.0791
0.3635 0.2713 0.1028
0.5071 0.2714 0.0853
0.6403 0.2768 0.1036
0.7698 0.2872 0.1313
0.8982 0.3012 0.1599
0.0720 0.3617 0.2014
0.1382 0.3622 0.2077
0.2325 0.3709 0.2035
0.3795 0.3912 0.1297
0.4807 0.4107 0.1965
0.6365 0.4078 0.1403
0.7702 0.4124 0.1504
0.9031 0.4170 0.1661
0.1298 0.4911 0.2805
0.1777 0.4914 0.2859
0.2582 0.4948 0.2926
0.3599 0.5088 0.2734
0.5117 0.5265 0.1887
0.6090 0.5459 0.2689
0.7554 0.5480 0.2171
0.8987 0.5465 0.1917
0.1803 0.6209 0.3623
0.2178 0.6212 0.3667
0.2887 0.6228 0.3746
0.3777 0.6297 0.3745
0.4891 0.6458 0.3366
0.6450 0.6596 0.2377
0.7448 0.6764 0.3131
0.8655 0.6867 0.3059
0.2382 0.7489 0.4366
0.2676 0.7490 0.4399
0.3286 0.7499 0.4468
0.4094 0.7534 0.4522
0.5027 0.7629 0.4411
0.6211 0.7786 0.3852
0.7773 0.7886 0.2741
0.8797 0.8020 0.3413
0.2963 0.8738 0.5051
0.3198 0.8738 0.5079
0.3716 0.8743 0.5139
0.4445 0.8761 0.5208
0.5296 0.8813 0.5205
0.6267 0.8921 0.4964
0.7501 0.9058 0.4238
0.9051 0.9118 0.3002
0.0000 0.0080 0.1252
0.0850 0.0287 0.1420
0.2371 0.0294 0.1369
0.3633 0.0581 0.1441
0.4933 0.0840 0.1550
0.6248 0.1102 0.1688
0.7558 0.1391 0.1868
0.8861 0.1696 0.2079
0.0000 0.1261 0.1356
0.1180 0.1290 0.1373
0.2432 0.1352 0.1416
0.3706 0.1446 0.1488
0.4998 0.1572 0.1588
0.6300 0.1733 0.1722
0.7597 0.1935 0.1901
0.8892 0.2163 0.2107
0.0335 0.2442 0.1622
0.1246 0.2389 0.1744
0.2489 0.2577 0.1556
0.3775 0.2651 0.1573
0.5110 0.2686 0.1627
0.6404 0.2768 0.1772
0.7684 0.2891 0.1958
0.8964 0.3039 0.2160
0.0912 0.3652 0.2255
0.1532 0.3636 0.2340
0.2416 0.3679 0.2399
0.3823 0.3909 0.1872
0.4894 0.4079 0.2261
0.6392 0.4063 0.1959
0.7729 0.4103 0.2052
0.9041 0.4162 0.2191
0.1429 0.4928 0.2984
0.1891 0.4924 0.3048
0.2677 0.4939 0.3149
0.3646 0.5067 0.3038
0.5137 0.5263 0.2321
0.6101 0.5456 0.3010
0.7636 0.5440 0.2441
0.9010 0.5451 0.2344
0.1903 0.6219 0.3761
0.2269 0.6218 0.3810
0.2968 0.6227 0.3903
0.3840 0.6284 0.3938
0.4918 0.6444 0.3618
0.6466 0.6594 0.2723
0.7443 0.6765 0.3438
0.8724 0.6838 0.3207
0.2460 0.7494 0.4475
0.2749 0.7494 0.4512
0.3352 0.7499 0.4589
0.4152 0.7527 0.4660
0.5070 0.7617 0.4581
0.6229 0.7777 0.4067
0.7785 0.7883 0.3035
0.8789 0.8022 0.3695
0.3024 0.8741 0.5142
0.3257 0.8741 0.5171
0.3770 0.8743 0.5236
0.4495 0.8757 0.5315
0.5339 0.8805 0.5329
0.6296 0.8911 0.5116
0.7514 0.9052 0.4426
0.9060 0.9116 0.3262
0.0000 0.0292 0.2339
0.0369 0.0784 0.2119
0.1914 0.0845 0.2673
0.3602 0.0680 0.2626
0.4924 0.0915 0.2647
0.6206 0.1248 0.2741
0.7499 0.1569 0.2873
0.8799 0.1872 0.3029
0.0078 0.1424 0.2388
0.0956 0.1434 0.2341
0.2077 0.1574 0.2637
0.3685 0.1496 0.2608
0.4956 0.1659 0.2674
0.6236 0.1862 0.2771
0.7529 0.2080 0.2905
0.8828 0.2306 0.3056
0.0395 0.2543 0.2585
0.1382 0.2558 0.2597
0.2554 0.2595 0.2626
0.3792 0.2655 0.2677
0.5057 0.2738 0.2750
0.6334 0.2847 0.2851
0.7617 0.2980 0.2976
0.8902 0.3130 0.3114
0.1022 0.3814 0.2759
0.1698 0.3791 0.2816
0.2642 0.3710 0.2993
0.3877 0.3914 0.2829
0.5139 0.3990 0.2865
0.6464 0.4024 0.2917
0.7750 0.4089 0.3035
0.9027 0.4177 0.3144
0.1593 0.5012 0.3342
0.2061 0.4995 0.3414
0.2862 0.4961 0.3570
0.3763 0.5018 0.3637
0.5179 0.5260 0.3143
0.6197 0.5429 0.3553
0.7728 0.5397 0.3173
0.9067 0.5415 0.3171
0.2071 0.6262 0.4054
0.2432 0.6254 0.4110
0.3131 0.6242 0.4231
0.3988 0.6263 0.4344
0.4988 0.6409 0.4166
0.6500 0.6590 0.3435
0.7446 0.6764 0.4059
0.8902 0.6763 0.3569
0.2613 0.7518 0.4719
0.2897 0.7514 0.4761
0.3493 0.7509 0.4855
0.4287 0.7519 0.4967
0.5175 0.7590 0.4965
0.6274 0.7754 0.4559
0.7812 0.7878 0.3668
0.8773 0.8025 0.4307
0.3154 0.8755 0.5351
0.3383 0.8753 0.5384
0.3892 0.8749 0.5459
0.4612 0.8754 0.5561
0.5443 0.8789 0.5618
0.6369 0.8887 0.5471
0.7546 0.9036 0.4867
0.9082 0.9111 0.3837
0.0000 0.0645 0.3436
0.0230 0.1044 0.3188
0.1366 0.1459 0.3350
0.3004 0.1439 0.3956
0.4763 0.1235 0.3974
0.6223 0.1285 0.3895
0.7499 0.1627 0.4000
0.8771 0.1984 0.4117
0.0000 0.1506 0.3515
0.0777 0.1596 0.3416
0.1622 0.1956 0.3353
0.3107 0.1972 0.3935
0.4849 0.1810 0.3951
0.6249 0.1894 0.3916
0.7517 0.2144 0.4022
0.8786 0.2420 0.4137
0.0979 0.2742 0.3522
0.1566 0.2731 0.3627
0.2338 0.2750 0.3586
0.3403 0.2877 0.3916
0.5029 0.2790 0.3912
0.6301 0.2911 0.3977
0.7559 0.3075 0.4077
0.8830 0.3249 0.4189
0.1054 0.3860 0.3861
0.1728 0.3869 0.3870
0.2769 0.3893 0.3895
0.3937 0.3937 0.3937
0.5159 0.3997 0.4003
0.6405 0.4075 0.4084
0.7666 0.4169 0.4177
0.8942 0.4268 0.4251
0.1571 0.5171 0.4025
0.2089 0.5173 0.4042
0.3002 0.5151 0.4115
0.4000 0.5057 0.4319
0.5232 0.5267 0.4172
0.6489 0.5335 0.4196
0.7817 0.5354 0.4205
0.9104 0.5393 0.4259
0.2159 0.6387 0.4481
0.2543 0.6375 0.4529
0.3289 0.6341 0.4653
0.4192 0.6290 0.4847
0.5113 0.6349 0.4900
0.6548 0.6587 0.4379
0.7540 0.6741 0.4759
0.9069 0.6690 0.4340
0.2753 0.7592 0.5069
0.3043 0.7583 0.5114
0.3655 0.7563 0.5222
0.4468 0.7540 0.5384
0.5347 0.7559 0.5500
0.6351 0.7711 0.5276
0.7853 0.7873 0.4544
0.8767 0.8027 0.5128
0.3304 0.8799 0.5661
0.3534 0.8793 0.5697
0.4047 0.8781 0.5785
0.4775 0.8767 0.5917
0.5607 0.8774 0.6040
0.6496 0.8848 0.6006
0.7599 0.9006 0.5539
0.9116 0.9104 0.4657
0.0000 0.1020 0.4546
0.0179 0.1258 0.4403
0.1132 0.1846 0.4163
0.2408 0.2110 0.4670
0.4105 0.2049 0.5265
0.5895 0.1842 0.5344
0.7462 0.1769 0.5233
0.8788 0.2017 0.5273
0.0000 0.1698 0.4616
0.0617 0.1788 0.4543
0.1435 0.2221 0.4277
0.2541 0.2497 0.4648
0.4178 0.2452 0.5253
0.5962 0.2266 0.5332
0.7499 0.2228 0.5231
0.8801 0.2448 0.5290
0.0574 0.2818 0.4678
0.1368 0.2772 0.4774
0.2145 0.2920 0.4618
0.2948 0.3226 0.4646
0.4378 0.3232 0.5239
0.6124 0.3081 0.5306
0.7572 0.3104 0.5241
0.8835 0.3282 0.5324
0.1744 0.4034 0.4763
0.2214 0.4060 0.4789
0.2956 0.4069 0.4926
0.3716 0.4094 0.4897
0.4745 0.4217 0.5250
0.6365 0.4128 0.5265
0.7639 0.4220 0.5311
0.8894 0.4342 0.5368
0.1618 0.5192 0.5182
0.2120 0.5198 0.5190
0.3024 0.5215 0.5209
0.4118 0.5245 0.5243
0.5289 0.5289 0.5289
0.6511 0.5343 0.5338
0.7755 0.5405 0.5383
0.9011 0.5472 0.5425
0.2115 0.6499 0.5335
0.2516 0.6503 0.5339
0.3309 0.6514 0.5350
0.4332 0.6497 0.5413
0.5360 0.6393 0.5618
0.6602 0.6594 0.5440
0.7850 0.6647 0.5431
0.9164 0.6648 0.5412
0.2756 0.7732 0.5576
0.3068 0.7725 0.5603
0.3729 0.7704 0.5680
0.4613 0.7657 0.5834
0.5553 0.7590 0.6049
0.6474 0.7645 0.6090
0.7899 0.7870 0.5553
0.8859 0.8006 0.5916
0.3382 0.8896 0.6052
0.3622 0.8889 0.6085
0.4159 0.8869 0.6172
0.4923 0.8835 0.6321
0.5793 0.8798 0.6510
0.6677 0.8811 0.6623
0.7676 0.8959 0.6360
0.9157 0.9097 0.5622
0.0000 0.1404 0.5666
0.0034 0.1536 0.5600
0.1018 0.2130 0.5256
0.2093 0.2582 0.5351
0.3478 0.2754 0.6020
0.5206 0.2670 0.6597
0.7004 0.2467 0.6728
0.8642 0.2327 0.6616
0.0000 0.1951 0.5727
0.0392 0.2022 0.5686
0.1318 0.2451 0.5388
0.2269 0.2876 0.5388
0.3560 0.3061 0.6001
0.5258 0.2985 0.6592
0.7055 0.2793 0.6721
0.8679 0.2675 0.6607
0.0194 0.2930 0.5836
0.1168 0.2920 0.5871
0.1984 0.3100 0.5710
0.2737 0.3478 0.5527
0.3797 0.3701 0.5976
0.5400 0.3649 0.6585
0.7185 0.3474 0.6704
0.8768 0.3397 0.6579
0.1507 0.4169 0.5823
0.1947 0.4151 0.5919
0.2765 0.4093 0.6089
0.3507 0.4264 0.5913
0.4282 0.4547 0.5989
0.5667 0.4546 0.6583
0.7411 0.4395 0.6661
0.8894 0.4377 0.6543
0.2321 0.5328 0.6089
0.2716 0.5347 0.6092
0.3475 0.5395 0.6121
0.4304 0.5416 0.6268
0.5067 0.5444 0.6242
0.6085 0.5558 0.6578
0.7708 0.5456 0.6568
0.8987 0.5516 0.6562
0.2171 0.6517 0.6489
0.2563 0.6521 0.6493
0.3344 0.6532 0.6502
0.4358 0.6551 0.6516
0.5482 0.6579 0.6535
0.6659 0.6615 0.6556
0.7871 0.6654 0.6579
0.9098 0.6697 0.6600
0.2728 0.7799 0.6567
0.3041 0.7802 0.6569
0.3708 0.7808 0.6573
0.4629 0.7820 0.6580
0.5689 0.7805 0.6629
0.6721 0.7692 0.6833
0.7949 0.7877 0.6634
0.9176 0.7911 0.6604
0.3315 0.9029 0.6667
0.3572 0.9026 0.6680
0.4147 0.9014 0.6718
0.4972 0.8985 0.6806
0.5924 0.8925 0.6974
0.6880 0.8842 0.7198
0.7794 0.8888 0.7224
0.9199 0.9093 0.6667
0.0000 0.1796 0.6796
0.0000 0.1872 0.6770
0.0972 0.2374 0.6471
0.1919 0.2941 0.6271
0.3085 0.3286 0.6653
0.4552 0.3394 0.7389
0.6296 0.3294 0.7946
0.8102 0.3088 0.8097
0.0000 0.2245 0.6850
0.0045 0.2297 0.6831
0.1245 0.2669 0.6581
0.2108 0.3183 0.6350
0.3195 0.3527 0.6661
0.4606 0.3644 0.7377
0.6337 0.3547 0.7942
0.8143 0.3347 0.8088
0.0000 0.3110 0.6962
0.0911 0.3117 0.6978
0.1844 0.3293 0.6842
0.2577 0.3708 0.6564
0.3494 0.4052 0.6707
0.4761 0.4196 0.7352
0.6445 0.4110 0.7932
0.8250 0.3920 0.8062
0.1151 0.4253 0.7040
0.1732 0.4225 0.7122
0.2587 0.4220 0.7181
0.3318 0.4442 0.6976
0.4052 0.4785 0.6853
0.5077 0.4978 0.7328
0.6653 0.4916 0.7907
0.8440 0.4736 0.8011
0.2351 0.5498 0.7024
0.2651 0.5501 0.7074
0.3264 0.5489 0.7227
0.4115 0.5429 0.7436
0.4854 0.5608 0.7233
0.5625 0.5872 0.7309
0.6982 0.5858 0.7866
0.8717 0.5695 0.7925
0.2854 0.6618 0.7400
0.3183 0.6629 0.7395
0.3879 0.6660 0.7386
0.4802 0.6720 0.7401
0.5674 0.6741 0.7534
0.6437 0.6766 0.7496
0.7436 0.6866 0.7816
0.9039 0.6747 0.7790
0.2779 0.7817 0.7720
0.3086 0.7819 0.7722
0.3745 0.7825 0.7726
0.4658 0.7836 0.7732
0.5710 0.7851 0.7739
0.6836 0.7871 0.7746
0.8000 0.7895 0.7751
0.9193 0.7917 0.7754
0.3315 0.9062 0.7749
0.3567 0.9063 0.7749
0.4132 0.9066 0.7750
0.4954 0.9071 0.7750
0.5934 0.9077 0.7749
0.7007 0.9058 0.7782
0.8037 0.8934 0.7980
0.9242 0.9097 0.7757
0.0000 0.2191 0.7935
0.0000 0.2238 0.7929
0.0939 0.2614 0.7719
0.1813 0.3237 0.7380
0.2848 0.3703 0.7447
0.4092 0.3970 0.8016
0.5626 0.4028 0.8761
0.7386 0.3912 0.9276
0.0000 0.2567 0.7982
0.0000 0.2605 0.7978
0.1174 0.2896 0.7800
0.1998 0.3450 0.7469
0.2971 0.3901 0.7488
0.4165 0.4171 0.8014
0.5666 0.4235 0.8750
0.7420 0.4120 0.9266
0.0000 0.3335 0.8089
0.0522 0.3349 0.8100
0.1697 0.3506 0.7996
0.2446 0.3928 0.7695
0.3295 0.4349 0.7606
0.4366 0.4629 0.8017
0.5779 0.4710 0.8722
0.7510 0.4600 0.9242
0.0799 0.4375 0.8218
0.1497 0.4361 0.8265
0.2396 0.4391 0.8278
0.3149 0.4625 0.8078
0.3863 0.5005 0.7848
0.4759 0.5302 0.8049
0.6009 0.5416 0.8669
0.7676 0.5317 0.9202
0.1962 0.5600 0.8204
0.2327 0.5584 0.8279
0.3072 0.5540 0.8444
0.3942 0.5542 0.8504
0.4657 0.5780 0.8259
0.5390 0.6096 0.8147
0.6395 0.6263 0.8601
0.7934 0.6187 0.9147
0.3162 0.6794 0.8214
0.3403 0.6801 0.8234
0.3920 0.6815 0.8303
0.4628 0.6810 0.8479
0.5489 0.6748 0.8697
0.6221 0.6925 0.8469
0.6975 0.7168 0.8541
0.8293 0.7138 0.9075
0.3390 0.7889 0.8650
0.3662 0.7895 0.8644
0.4268 0.7912 0.8628
0.5139 0.7947 0.8606
0.6136 0.8007 0.8607
0.7021 0.8022 0.8730
0.7776 0.8041 0.8683
0.8749 0.8123 0.8985
0.3358 0.9076 0.8899
0.3606 0.9077 0.8899
0.4165 0.9079 0.8899
0.4980 0.9083 0.8899
0.5955 0.9089 0.8897
0.7022 0.9096 0.8893
0.8141 0.9103 0.8885
0.9286 0.9110 0.8870
